X: 1363
T: Crooked Corner Mazurka
B: australian traditional tunes wiki
M:3/4
L:1/8
R: Polka Mazurka
Q: 1/4=100
K:G
V:1 
|:G>A|"G"B2B>d (3GFG|B2B>d (3GFG|"D7"A2-(3ABc B>A|"G"G2-G>F G>A|
B2B>d (3GFG|B2B>d (3GFG|"D7"c2-c>A F>A|"G"G4:|
|:d>d|"C"e2-e>g f>e|"G"d2-d>e (3dAB|"D7"A2-A>c B>A|"G"G2-G>d d>d|
"C"e2-e>g f>e|"G"d2-d>e (3dAB|"D7"A2-A>c A>F|"G"G4:|
% abcbook-tune_id 6342d53a161145daaead5753


% abcbook-boost 0
% abcbook-tablature 
% abcbook-transpose 
% abcbook-lastupdated 1665324361186
% abcbook-soundfonts 
% abcbook-repeats 1
% NFF Book 2017

